src/media/icons/cube.svg

<svg width="50" height="50" viewBox="0 0 50 50" fill="none" xmlns="http://www.w3.org/2000/svg">
<mask id="mask0" mask-type="alpha" maskUnits="userSpaceOnUse" x="3" y="0" width="44" height="50">
<path d="M22 1.73205C23.8564 0.660254 26.1436 0.660254 28 1.73205L43.6506 10.7679C45.507 11.8397 46.6506 13.8205 46.6506 15.9641V34.0359C46.6506 36.1795 45.507 38.1603 43.6506 39.2321L28 48.2679C26.1436 49.3397 23.8564 49.3397 22 48.2679L6.34936 39.2321C4.49296 38.1603 3.34937 36.1795 3.34937 34.0359V15.9641C3.34937 13.8205 4.49296 11.8397 6.34937 10.7679L22 1.73205Z" fill="#C4C4C4"/>
</mask>
<g mask="url(#mask0)">
<path d="M25 20.8387V52L5.20617 41.5853C3.2345 40.5478 2 38.5034 2 36.2754V10L25 20.8387Z" fill="#F6936A"/>
<path d="M25 20.8387V52L44.7938 41.5853C46.7655 40.5478 48 38.5034 48 36.2754V10L25 20.8387Z" fill="#F26740"/>
<path d="M25 -1L48 12.1579L25 24L2 12.1579L25 -1Z" fill="#FFAC89"/>
<mask id="mask1" mask-type="alpha" maskUnits="userSpaceOnUse" x="-6" y="-9" width="62" height="33">
<path d="M24.9996 -9L55.3596 8.36842L24.9996 24L-5.36035 8.36842L24.9996 -9Z" fill="#FFAC89"/>
</mask>
<g mask="url(#mask1)">
<circle cx="25" cy="22.68" r="29.04" fill="url(#paint0_radial)"/>
</g>
</g>
<defs>
<radialGradient id="paint0_radial" cx="0" cy="0" r="1" gradientUnits="userSpaceOnUse" gradientTransform="translate(25 22.68) rotate(90) scale(29.04)">
<stop stop-color="#FFF0C8"/>
<stop offset="1" stop-color="#FFE8AD" stop-opacity="0"/>
</radialGradient>
</defs>
</svg>

<svg width="50" height="50" fill="none" version="1.1" viewBox="0 0 50 50" xmlns="http://www.w3.org/2000/svg"><mask id="orangecubeb" x="3" y="0" width="44" height="50" mask-type="alpha" maskUnits="userSpaceOnUse"><path d="m22 1.732c1.8564-1.0718 4.1436-1.0718 6 0l15.651 9.0358c1.8564 1.0718 3 3.0526 3 5.1962v18.072c0 2.1436-1.1436 4.1244-3 5.1962l-15.651 9.0358c-1.8564 1.0718-4.1436 1.0718-6 0l-15.651-9.0358c-1.8564-1.0718-3-3.0526-3-5.1962v-18.072c0-2.1436 1.1436-4.1244 3-5.1962l15.651-9.0358z" fill="#C4C4C4"/></mask><g mask="url(#orangecubeb)"><path d="M25 20.8387V52L5.20617 41.5853C3.2345 40.5478 2 38.5034 2 36.2754V10L25 20.8387Z" fill="#F6936A"/><path d="M25 20.8387V52L44.7938 41.5853C46.7655 40.5478 48 38.5034 48 36.2754V10L25 20.8387Z" fill="#F26740"/><path d="M25 -1L48 12.1579L25 24L2 12.1579L25 -1Z" fill="#FFAC89"/><mask id="orangecubec" x="-6" y="-9" width="62" height="33" mask-type="alpha" maskUnits="userSpaceOnUse"><path d="m25-9 30.36 17.368-30.36 15.632-30.36-15.632 30.36-17.368z" fill="#FFAC89"/></mask><g mask="url(#orangecubec)"><circle cx="25" cy="22.68" r="29.04" fill="url(#orangecubea)"/></g></g><defs><radialGradient id="orangecubea" cx="0" cy="0" r="1" gradientTransform="translate(25 22.68) rotate(90) scale(29.04)" gradientUnits="userSpaceOnUse"><stop stop-color="#FFF0C8" offset="0"/><stop stop-color="#FFE8AD" stop-opacity="0" offset="1"/></radialGradient></defs></svg>
